X: 23
T: Adir Hu
C: Shlomo Carlebach
R: freylach
M: 4/4
L: 1/8
Z: John Chambers <jc:trillian.mit.edu>
K: D_B_e^F
|: "D"FG AB A4 | FG AB A2 A2 | FG AB "Cm"cc2 B | AG FE "D"D4 :|
|: "D"D2 A2 A4 | "Cm"AG BA "Gm"G3 G |1 "Eb"G2 A2 F2 G2 | "D"A6 z2 :|2 "Eb"G2 A2 F2 E2 | "D"D6 d>c 
|: "D"d6 d>c | "Bb"d6 zd |1 "Cm"e2 d2 c2 B2 | "D"A6 d>c :|2 "Cm"e2 d2 c2 B2 | "D"A6 z2 
|: "D"D2 A2 A4 | "Cm"AG BA "Gm"G3 G |1 "Eb"G2 A2 F2 G2 | "D"A6 z2 :|2 "Eb"G2 A2 F2 E2 | "D"D6 z2 |]



